X:1
T:O Jesu Christ, Mein’s, LM
T:Nürnbergisches Gesangbuch, 1676
T:O Jesu Christ, Mein’s, LM
T:Public Domain
C:N&#252;rnbergisches Gesangbuch, 1676
Z:Public Domain
%%score ( 1 2 ) ( 3 4 )
L:1/8
M:3/4
K:G
V:1 treble 
V:2 treble 
V:3 bass 
V:4 bass 
V:1
 [DG]2 [EG]2 [FA]2 | [GB]4 [Gd]2 | ([EG]2 [FA]2) [GB]2 | [FA]6 | [DA]2 [DB]2 [Ec]2 | [Fd]4 [GB]2 | %6
 [GA]4 [FA]2 | [DG]6 | [DF]2 [DF]2 [B,G]2 | (A3 G) [DF]2 | [B,E]4 [^CE]2 | D6 | %12
 [B,G]2 [DA]2 [DB]2 | [Ec]4 [DB]2 | [DA]4 [DA]2 | [DG]6 |] %16
V:2
 x6 | x6 | x6 | x6 | x6 | x6 | x6 | x6 | x6 | ^C4 x2 | x6 | D6 | x6 | x6 | x6 | x6 |] %16
V:3
 [G,B,]2 [E,B,]2 [D,D]2 | [G,D]4 [B,,D]2 | (C,2 A,,2) [G,,D]2 | [D,D]6 | [D,F,]2 G,2 [E,G,]2 | %5
 [D,A,]4 [G,,D]2 | [C,E]4 [D,D]2 | [G,,B,]6 | [D,A,]2 [B,,B,]2 [E,G,]2 | [A,,E,]4 [B,,D,]2 | %10
 [G,,E,]4 [A,,A,]2 | [D,F,]6 | [E,G,]2 [D,F,]2 [G,,G,]2 | [C,G,]4 [G,,G,]2 | [D,G,]4 [D,F,]2 | %15
 [G,,B,]6 |] %16
V:4
 x6 | x6 | C4 x2 | x6 | x2 G,2 x2 | x6 | x6 | x6 | x6 | x6 | x6 | x6 | x6 | x6 | x6 | x6 |] %16

